public/integrations/jetbrains.svg

<svg width="48" height="48" viewBox="0 0 48 48" version="1.1" xmlns="http://www.w3.org/2000/svg" xmlns:xlink="http://www.w3.org/1999/xlink">
<title>Group</title>
<desc>Created using Figma</desc>
<g id="Canvas" transform="translate(-16691 501)">
<g id="Group">
<g id="Group">
<g id="Vector">
<use xlink:href="#path0_fill" transform="translate(16697.2 -483.604)" fill="#0E121B"/>
</g>
<g id="Vector">
<use xlink:href="#path1_fill" transform="translate(16697.2 -480.709)" fill="#0E121B"/>
</g>
</g>
<g id="Group">
<g id="Vector">
<use xlink:href="#path2_fill" transform="translate(16704.6 -483.482)" fill="#0E121B"/>
</g>
</g>
<g id="Group">
<g id="Vector">
<use xlink:href="#path3_fill" transform="translate(16712.1 -482.833)" fill="#0E121B"/>
</g>
</g>
<g id="Group">
<g id="Group">
<g id="Vector">
<use xlink:href="#path4_fill" transform="translate(16691 -501)" fill="#0E121B"/>
</g>
</g>
</g>
</g>
</g>
<defs>
<path id="path0_fill" d="M 2.40263 0.692381L 2.40263 0.670743C 2.40263 0.234243 2.05644 5.45469e-07 1.41957 5.45469e-07L -1.79431e-08 5.45469e-07L -1.79431e-08 1.37441L 1.36406 1.37441C 2.02258 1.37441 2.40263 1.15052 2.40263 0.692381Z"/>
<path id="path1_fill" d="M 1.65381 2.29671e-07L -1.79431e-08 2.29671e-07L -1.79431e-08 1.4412L 1.67639 1.4412C 2.34713 1.4412 2.7159 1.18438 2.7159 0.726246L 2.7159 0.703668C 2.7159 0.279397 2.381 2.29671e-07 1.65381 2.29671e-07Z"/>
<path id="path2_fill" d="M 1.43086 -2.44026e-07L 5.74178e-08 -2.44026e-07L 5.74178e-08 1.88899L 1.4412 1.88899C 2.16839 1.88899 2.60395 1.53151 2.60395 0.961429L 2.60395 0.938853C 2.60395 0.313265 2.14581 -2.44026e-07 1.43086 -2.44026e-07Z"/>
<path id="path3_fill" d="M -1.43545e-07 2.21261L 1.75447 2.21261L 0.88335 2.5838e-07L -1.43545e-07 2.21261Z"/>
<path id="path4_fill" d="M 0 0L 0 48L 48 48L 48 0L 0 0ZM 16.8975 6L 23.7488 6L 23.7488 7.90028L 21.4017 7.90028L 21.4017 13.8241L 19.2333 13.8241L 19.2333 7.90028L 16.8975 7.90028L 16.8975 6ZM 10.1072 6.00094L 16.3998 6.00094L 16.3998 7.83349L 12.2531 7.83349L 12.2531 9.0301L 16.0085 9.0301L 16.0085 10.7394L 12.2531 10.7394L 12.2531 11.9802L 16.4553 11.9802L 16.4553 13.8241L 10.1072 13.8241L 10.1072 6.00094ZM 5.3349 11.3208C 5.71496 11.7789 6.07244 12.047 6.56444 12.047C 7.10066 12.047 7.44685 11.6783 7.44685 10.952L 7.44685 6.00094L 9.60395 6.00094L 9.60395 10.9633C 9.60395 11.9464 9.35842 12.6397 8.83349 13.1646C 8.31891 13.6792 7.58137 13.9586 6.68768 13.9586C 5.32361 13.9586 4.49671 13.3885 3.93791 12.6397L 5.3349 11.3208ZM 4.13923 15.6519L 8.15146 15.6519C 9.13453 15.6519 9.82785 15.8984 10.286 16.3452C 10.5992 16.6698 10.7893 17.0828 10.7893 17.619L 10.7893 17.6416C 10.7893 18.5466 10.2747 19.0837 9.58137 19.3857C 10.5315 19.698 11.1355 20.2342 11.1355 21.2963L 11.1355 21.3189C 11.1355 22.6595 10.0405 23.476 8.17404 23.476L 4.13923 23.476L 4.13923 15.6519ZM 22.1402 42L 4.14017 42L 4.14017 39L 22.1402 39L 22.1402 42ZM 24.032 23.476L 23.4732 22.0677L 20.445 22.0677L 19.8862 23.476L 18.6566 23.476L 16.1646 23.476L 14.5889 21.1063L 13.6275 21.1063L 13.6275 23.476L 11.4591 23.476L 11.4591 15.6519L 15.159 15.6519C 16.3547 15.6519 17.1816 15.9652 17.7065 16.4901C 18.1646 16.9483 18.3998 17.5409 18.3998 18.3123L 18.3998 18.3349C 18.3998 19.5419 17.7629 20.3349 16.7902 20.7488L 18.0132 22.5353L 20.937 15.5964L 23.0263 15.5964L 26.3575 23.476L 24.032 23.476ZM 28.7817 23.476L 26.6134 23.476L 26.6134 15.6529L 28.7817 15.6529L 28.7817 23.476ZM 36.7056 23.476L 34.8166 23.476L 31.4638 19.1844L 31.4638 23.476L 29.318 23.476L 29.318 15.6529L 31.3405 15.6529L 34.5597 19.7883L 34.5597 15.6529L 36.7056 15.6529L 36.7056 23.476ZM 43.6707 21.0611C 43.6707 22.6595 42.4073 23.6096 40.508 23.6096C 39.1223 23.6096 37.8147 23.174 36.842 22.3133L 38.0489 20.8711C 38.8316 21.4864 39.6811 21.81 40.5861 21.81C 41.1778 21.81 41.4911 21.6096 41.4911 21.2738L 41.4911 21.2512C 41.4911 20.9163 41.2342 20.7488 40.1609 20.4911C 38.4958 20.1119 37.2107 19.6425 37.2107 18.0442L 37.2107 18.0216C 37.2107 16.5691 38.3622 15.5183 40.2399 15.5183C 41.5691 15.5183 42.6087 15.8758 43.4581 16.5579L 42.3744 18.0884C 41.6585 17.5748 40.8768 17.318 40.1834 17.318C 39.6585 17.318 39.4017 17.5296 39.4017 17.8203L 39.4017 17.8429C 39.4017 18.2004 39.6698 18.3565 40.7648 18.603C 42.5532 18.9944 43.6707 19.5748 43.6707 21.0395L 43.6707 21.0611Z"/>
</defs>
</svg>

<svg width="48" height="48" xmlns="http://www.w3.org/2000/svg" xmlns:xlink="http://www.w3.org/1999/xlink"><use xlink:href="#a" transform="translate(6.2 17.396)" fill="#0E121B"/><use xlink:href="#b" transform="translate(6.2 20.291)" fill="#0E121B"/><use xlink:href="#c" transform="translate(13.6 17.518)" fill="#0E121B"/><use xlink:href="#d" transform="translate(21.1 18.167)" fill="#0E121B"/><use xlink:href="#e" fill="#0E121B"/><defs><path id="a" d="M2.403.692V.671C2.403.234 2.056 0 1.42 0H0v1.374h1.364c.659 0 1.039-.223 1.039-.682Z"/><path id="b" d="M1.654 0H0v1.441h1.676c.671 0 1.04-.257 1.04-.715V.704C2.716.279 2.38 0 1.654 0Z"/><path id="c" d="M1.43 0H0v1.889h1.441c.727 0 1.163-.357 1.163-.928V.94C2.604.313 2.146 0 1.431 0Z"/><path id="d" d="M0 2.213h1.754L.884 0 0 2.213Z"/><path id="e" d="M0 0v48h48V0H0Zm16.898 6h6.85v1.9h-2.346v5.924h-2.169V7.9h-2.335V6Zm-6.79 0H16.4v1.833h-4.147V9.03h3.756v1.71h-3.756v1.24h4.202v1.844h-6.348V6.001Zm-4.773 5.32c.38.459.737.727 1.23.727.536 0 .882-.369.882-1.095V6.001h2.157v4.962c0 .983-.246 1.677-.77 2.202-.515.514-1.253.794-2.146.794-1.364 0-2.191-.57-2.75-1.32l1.397-1.318Zm-1.196 4.332h4.012c.984 0 1.677.246 2.135.693.313.325.503.738.503 1.274v.023c0 .905-.514 1.442-1.208 1.744.95.312 1.555.848 1.555 1.91v.023c0 1.34-1.095 2.157-2.962 2.157H4.139v-7.824ZM22.14 42h-18v-3h18v3Zm1.892-18.524-.559-1.408h-3.028l-.559 1.408h-3.721l-1.576-2.37h-.962v2.37H11.46v-7.824h3.7c1.196 0 2.023.313 2.547.838.459.458.694 1.05.694 1.822v.023c0 1.207-.637 2-1.61 2.414l1.223 1.786 2.924-6.939h2.09l3.33 7.88h-2.325Zm4.75 0h-2.169v-7.823h2.169v7.823Zm7.924 0h-1.89l-3.352-4.292v4.292h-2.146v-7.823h2.022l3.22 4.135v-4.135h2.146v7.823Zm6.965-2.415c0 1.599-1.264 2.549-3.163 2.549-1.386 0-2.693-.436-3.666-1.297l1.207-1.442c.783.615 1.632.939 2.537.939.592 0 .905-.2.905-.536v-.023c0-.335-.257-.502-1.33-.76-1.665-.38-2.95-.849-2.95-2.447v-.022c0-1.453 1.151-2.504 3.029-2.504 1.33 0 2.369.358 3.218 1.04l-1.084 1.53c-.716-.513-1.497-.77-2.19-.77-.526 0-.782.212-.782.502v.023c0 .357.268.514 1.363.76 1.788.391 2.906.972 2.906 2.436v.022Z"/></defs></svg>
